src/images/circuits/bahrain.svg

<svg width="39" height="26" viewBox="0 0 39 26" fill="none" xmlns="http://www.w3.org/2000/svg">
<path d="M36.0162 25.0892L37.5531 24.5685C38.1499 24.3663 38.4158 23.6737 38.0989 23.129C34.0481 16.1649 26.3774 3.66169 25.4536 3.11218C23.5205 1.96236 22.552 5.68482 21.552 7.18482C20.552 8.68482 21.5342 10.8544 22.717 12.1662C23.4657 12.9966 26.159 13.1122 27.159 14.1122C28.8731 15.8263 29.651 19.1119 27.4124 19.1119H15.1157C11.6157 19.1119 6.48119 19.1856 5.98119 18.6858C5.48119 18.186 6.23033 17.8439 7.05666 16.6962C7.70195 15.8 9.4944 16.1226 11.7422 16.3999C13.7422 16.7333 18.0203 17.4272 18.8203 17.0272C19.8203 16.5272 19.3876 16.3535 15.8876 13.8535C12.3876 11.3535 13.136 11.2469 13.4536 9.11219C13.68 7.58999 12.3565 6.94614 11.1024 6.64628C11.0039 6.62274 10.9092 6.58725 10.8221 6.53555C9.60976 5.81568 7.27581 4.08813 6.50471 2.54594C5.93133 1.39918 5.02639 1.04972 4.37562 1.00511C3.99522 0.979033 3.72676 1.30407 3.67547 1.68189L1.34293 18.8654C1.32095 19.0273 1.33898 19.1921 1.39543 19.3454L2.32111 21.8597C2.45183 22.2147 2.37099 22.6131 2.11222 22.8891L0.789383 24.3001C0.49 24.6194 0.71642 25.1421 1.15414 25.1421H35.6953C35.8045 25.1421 35.9129 25.1242 36.0162 25.0892Z" stroke="#FF0000"/>
</svg>

<svg width="39" height="26" fill="none" xmlns="http://www.w3.org/2000/svg"><path d="m36.016 25.09 1.537-.521a.993.993 0 0 0 .546-1.44c-4.05-6.964-11.722-19.467-12.645-20.017-1.934-1.15-2.902 2.573-3.902 4.073-1 1.5-.018 3.67 1.165 4.981.749.83 3.442.946 4.442 1.946 1.714 1.714 2.492 5 .253 5H15.116c-3.5 0-8.635.074-9.135-.426s.25-.842 1.076-1.99c.645-.896 2.437-.573 4.685-.296 2 .333 6.278 1.027 7.078.627 1-.5.568-.674-2.932-3.174s-2.752-2.606-2.434-4.74c.226-1.523-1.098-2.167-2.352-2.467a1.002 1.002 0 0 1-.28-.11c-1.212-.72-3.546-2.448-4.317-3.99-.574-1.147-1.479-1.496-2.13-1.54-.38-.027-.648.298-.7.676L1.343 18.865a1 1 0 0 0 .052.48l.926 2.515a1 1 0 0 1-.209 1.03L.79 24.3a.5.5 0 0 0 .365.842h34.541a1 1 0 0 0 .321-.053Z" stroke="red"/></svg>
